X: 3937
T:Small Coals. JMT096
M:4/4
L:1/8
Q:200
S:J.Moore,Tyneside,1841.(68a)
R:Reel
O:England
A:Northumbria
N:"....and little money"
Z:C.G.P
K:G
E2BE GABd|D2AD FGAc|E2BE GABd|gfed eEE2:|!
||edefg2fe|"sic"cdef fafd|edefg2f-e|efed eEE2|!
edefg2fe|defg fafd|"*"gbfe fafd|efed eEE2|]
